lib/brands/icons/r-lang.svg

<svg xmlns="http://www.w3.org/2000/svg" fill="none" aria-hidden="true" viewBox="0 0 48 48"><g id="r_lang-Icon"><g id="r_lang"><path id="nimb" fill="url(#paint0_linear_94_20608)" fill-rule="evenodd" d="M15 24.1429C22.732 24.1429 29 19.8576 29 14.5714C29 9.28527 22.732 5 15 5C7.26801 5 1 9.28527 1 14.5714C1 19.8576 7.26801 24.1429 15 24.1429ZM16.89 21.7142C22.6503 21.7142 27.32 19.8571 27.32 15.2142C27.32 10.5714 22.6503 8.71424 16.89 8.71424C11.1297 8.71424 6.45999 11.6244 6.45999 15.2142C6.45999 18.8041 11.1297 21.7142 16.89 21.7142Z" clip-rule="evenodd"/><path id="r" fill="url(#paint1_linear_94_20608)" fill-rule="evenodd" d="M22.7005 19.7143H22.2805L23.2251 20.0998C23.9724 20.4049 24.5939 20.9634 24.9848 21.6814L27.8805 27H22.5605L20.072 22.1754C19.8662 21.7764 19.5881 21.4207 19.2526 21.1272L19.095 20.9894C18.892 20.8119 18.6335 20.7143 18.3662 20.7143H17.2405V27H12.4805V10.9286L22.7005 10.876C24.5205 10.876 26.4805 12.8046 26.4805 15.2951C26.4805 17.7857 24.5205 19.7143 22.7005 19.7143ZM17.3805 14.4286L20.3205 14.4304C21.0225 14.4676 21.5805 15.0601 21.5805 15.7857C21.5805 16.5113 21.0225 17.1057 20.3205 17.1428H17.3805V14.4286Z" clip-rule="evenodd"/></g></g><defs><linearGradient id="paint0_linear_94_20608" x1="3.87" x2="29.1096" y1="9.14286" y2="17.8242" gradientUnits="userSpaceOnUse"><stop stop-color="#C8CBCD"/><stop offset="1" stop-color="#88888F"/></linearGradient><linearGradient id="paint1_linear_94_20608" x1="27.8805" x2="9.79835" y1="27" y2="11.8608" gradientUnits="userSpaceOnUse"><stop stop-color="#185DAC"/><stop offset="1" stop-color="#2F72C4"/></linearGradient></defs></svg>

<svg xmlns="http://www.w3.org/2000/svg" fill="none" aria-hidden="true" viewBox="0 0 48 48"><g fill-rule="evenodd" clip-rule="evenodd"><path fill="url(#a)" d="M15 24.143c7.732 0 14-4.285 14-9.572C29 9.285 22.732 5 15 5S1 9.285 1 14.571c0 5.287 6.268 9.572 14 9.572Zm1.89-2.429c5.76 0 10.43-1.857 10.43-6.5s-4.67-6.5-10.43-6.5-10.43 2.91-10.43 6.5 4.67 6.5 10.43 6.5Z"/><path fill="url(#b)" d="M22.7 19.714h-.42l.945.386a3.524 3.524 0 0 1 1.76 1.581L27.88 27h-5.32l-2.489-4.825a3.561 3.561 0 0 0-.82-1.048l-.157-.138a1.107 1.107 0 0 0-.729-.275H17.24V27h-4.76V10.929l10.22-.053c1.82 0 3.78 1.929 3.78 4.42 0 2.49-1.96 4.418-3.78 4.418Zm-5.32-5.285 2.94.001c.703.038 1.26.63 1.26 1.356 0 .725-.557 1.32-1.26 1.357h-2.94v-2.714Z"/></g><defs><linearGradient id="a" x1="3.87" x2="29.11" y1="9.143" y2="17.824" gradientUnits="userSpaceOnUse"><stop stop-color="#C8CBCD"/><stop offset="1" stop-color="#88888F"/></linearGradient><linearGradient id="b" x1="27.881" x2="9.798" y1="27" y2="11.861" gradientUnits="userSpaceOnUse"><stop stop-color="#185DAC"/><stop offset="1" stop-color="#2F72C4"/></linearGradient></defs></svg>
